svg/fluentui-system-icons/ic_fluent_payment_28_regular.svg

<svg width="28" height="28" viewBox="0 0 28 28" fill="none" xmlns="http://www.w3.org/2000/svg">
<path d="M18.25 16.5C17.8358 16.5 17.5 16.8358 17.5 17.25C17.5 17.6642 17.8358 18 18.25 18H21.75C22.1642 18 22.5 17.6642 22.5 17.25C22.5 16.8358 22.1642 16.5 21.75 16.5H18.25ZM2.00391 8.75C2.00391 6.67893 3.68284 5 5.75391 5H22.2505C24.3216 5 26.0005 6.67893 26.0005 8.75V19.2501C26.0005 21.3211 24.3216 23.0001 22.2505 23.0001H5.75391C3.68284 23.0001 2.00391 21.3211 2.00391 19.2501V8.75ZM5.75391 6.5C4.51127 6.5 3.50391 7.50736 3.50391 8.75V9.5H24.5005V8.75C24.5005 7.50736 23.4932 6.5 22.2505 6.5H5.75391ZM3.50391 19.2501C3.50391 20.4927 4.51127 21.5001 5.75391 21.5001H22.2505C23.4932 21.5001 24.5005 20.4927 24.5005 19.2501V11H3.50391V19.2501Z" fill="#212121"/>
</svg>

<svg xmlns="http://www.w3.org/2000/svg" width="28" height="28"><path d="M18.25 16.5a.75.75 0 0 0 0 1.5h3.5a.75.75 0 0 0 0-1.5h-3.5ZM2.004 8.75A3.75 3.75 0 0 1 5.754 5H22.25A3.75 3.75 0 0 1 26 8.75v10.5A3.75 3.75 0 0 1 22.25 23H5.755a3.75 3.75 0 0 1-3.75-3.75V8.75Zm3.75-2.25a2.25 2.25 0 0 0-2.25 2.25v.75H24.5v-.75a2.25 2.25 0 0 0-2.25-2.25H5.755Zm-2.25 12.75a2.25 2.25 0 0 0 2.25 2.25H22.25a2.25 2.25 0 0 0 2.25-2.25V11H3.505v8.25Z"/></svg>
